IMB-X-Files/The-Ambassadors-Assets/65f43207d485843526416774_link.svg

<svg fill="none" height="47" viewBox="0 0 47 47" width="47" xmlns="http://www.w3.org/2000/svg"><path d="m32.9074 28.5727-2.068-2.0709 2.068-2.068c.6839-.6779 1.2272-1.4843 1.5986-2.3727.3715-.8885.5637-1.8416.5659-2.8046.0021-.9629-.1861-1.9169-.5536-2.8069-.3675-.8901-.9073-1.6989-1.5882-2.3798s-1.4897-1.2207-2.3798-1.5882c-.89-.3675-1.844-.5557-2.8069-.5536-.963.0022-1.9161.1944-2.8046.5659-.8884.3714-1.6948.9147-2.3727 1.5986l-2.068 2.0694-2.0695-2.0679 2.0709-2.068c1.92-1.92 4.5241-2.99866 7.2394-2.99866s5.3194 1.07866 7.2394 2.99866 2.9986 4.5241 2.9986 7.2394-1.0786 5.3193-2.9986 7.2393l-2.0694 2.068zm-4.136 4.136-2.0694 2.0679c-1.92 1.92-4.5241 2.9987-7.2394 2.9987s-5.3193-1.0787-7.2393-2.9987-2.99869-4.524-2.99869-7.2393 1.07869-5.3194 2.99869-7.2394l2.0694-2.068 2.068 2.0709-2.068 2.068c-.6839.6779-1.2272 1.4843-1.5986 2.3728-.3715.8884-.5638 1.8415-.5659 2.8045s.186 1.9169.5536 2.807c.3675.8901.9073 1.6988 1.5882 2.3797.6809.681 1.4897 1.2207 2.3797 1.5882.8901.3676 1.844.5557 2.807.5536s1.9161-.1944 2.8046-.5659c.8884-.3714 1.6948-.9147 2.3727-1.5986l2.068-2.0679 2.0694 2.0679zm-1.0354-15.5128 2.0694 2.0695-10.3413 10.3398-2.0694-2.0679 10.3413-10.3399z" fill="#2a2e32"/></svg>

<svg width="47" height="47" viewBox="0 0 47 47" fill="none" xmlns="http://www.w3.org/2000/svg">
    <path
        d="M32.9074 28.5727L30.8394 26.5018L32.9074 24.4338C33.5913 23.7559 34.1346 22.9495 34.506 22.0611C34.8775 21.1726 35.0697 20.2195 35.0719 19.2565C35.074 18.2936 34.8858 17.3396 34.5183 16.4496C34.1508 15.5595 33.611 14.7507 32.9301 14.0698C32.2492 13.3889 31.4404 12.8491 30.5503 12.4816C29.6603 12.1141 28.7063 11.9259 27.7434 11.928C26.7804 11.9302 25.8273 12.1224 24.9388 12.4939C24.0504 12.8653 23.244 13.4086 22.5661 14.0925L20.4981 16.1619L18.4286 14.094L20.4995 12.026C22.4195 10.106 25.0236 9.02734 27.7389 9.02734C30.4542 9.02734 33.0583 10.106 34.9783 12.026C36.8983 13.946 37.9769 16.5501 37.9769 19.2654C37.9769 21.9807 36.8983 24.5847 34.9783 26.5047L32.9089 28.5727H32.9074ZM28.7714 32.7087L26.702 34.7766C24.782 36.6966 22.1779 37.7753 19.4626 37.7753C16.7473 37.7753 14.1433 36.6966 12.2233 34.7766C10.3033 32.8566 9.22461 30.2526 9.22461 27.5373C9.22461 24.822 10.3033 22.2179 12.2233 20.2979L14.2927 18.2299L16.3607 20.3008L14.2927 22.3688C13.6088 23.0467 13.0655 23.8531 12.6941 24.7416C12.3226 25.63 12.1303 26.5831 12.1282 27.5461C12.1261 28.5091 12.3142 29.463 12.6818 30.3531C13.0493 31.2432 13.5891 32.0519 14.27 32.7328C14.9509 33.4138 15.7597 33.9535 16.6497 34.321C17.5398 34.6886 18.4937 34.8767 19.4567 34.8746C20.4197 34.8725 21.3728 34.6802 22.2613 34.3087C23.1497 33.9373 23.9561 33.394 24.634 32.7101L26.702 30.6422L28.7714 32.7101V32.7087ZM27.736 17.1959L29.8054 19.2654L19.4641 29.6052L17.3947 27.5373L27.736 17.1974V17.1959Z"
        fill="#2A2E32" />
</svg>
